!!!COM:	Bach, Johann Sebastian
!!!CDT:	1685/02/21/-1750/07/28/
!!!OTL@@DE:	Nimm von uns, Herr, du treuer Gott
!!!SCT:	BWV 101/7
!!!PC#:	292
!!!AGN:	chorale
**kern	**kern	**kern	**kern
*ICvox	*ICvox	*ICvox	*ICvox
*Ibass	*Itenor	*Ialto	*Isoprn
*I"Bass	*I"Tenor	*I"Alto	*I"Soprano
*	*oclefC4	*oclefC3	*oclefC1
*clefF4	*clefGv2	*clefG2	*clefG2
*k[b-]	*k[b-]	*k[b-]	*k[b-]
*d:	*d:	*d:	*d:
*M4/4	*M4/4	*M4/4	*M4/4
*met(c)	*met(c)	*met(c)	*met(c)
*MM100	*MM100	*MM100	*MM100
4D	4d	4f	4a
=1	=1	=1	=1
4C#	4A	4e	4a
4D	4A	4d	4f
4B-	4B-	4d	4g
4F	4A	4d	4a
=2	=2	=2	=2
4G	4B-	4d	4f
4A	4E	4c#	4e
4D;	4F;	4A;	4d;
8DL	4d	4f	4a
8EJ	.	.	.
=3	=3	=3	=3
4F	4cnX	4f	4a
4E	4c	8gL	4g
.	.	8fJ	.
4A	4c	4e	4cc
4F	4c	4f	4a
=4	=4	=4	=4
4B-	4B-	4d	4f
4BB-	4D	4d	4g
4AA;	4E;	4c#;	4a;
4D	4F	4d	4a
=5	=5	=5	=5
4A	4A	4e	4ccnX
4G	4B-	4g	8ddL
.	.	.	8eeJ
4F	4c	4a	4ff
8GL	8B-L	4g	4ee
8AJ	8cJ	.	.
=6	=6	=6	=6
4B-	4d	8fL	4dd
.	.	8gJ	.
4A	4e	4a	4cc#
4D;	4f;	4a;	4dd;
4G	4B	4g	4dd
=7	=7	=7	=7
4C	8cnXL	4g	4ee
.	8BJ	.	.
8DL	4A	8f#L	4dd
8EJ	.	8g#J	.
4F#	4d	4a	4ccnX
4G#	4d	4e	4b
=8	=8	=8	=8
4A	4c	8eL	4a
.	.	8aJ	.
4E	4d	8aL	4b
.	.	8g#J	.
4AA;	4c;	4e;	4a;
4BB	4GnX	4d	4dd
=9	=9	=9	=9
4C	4G	4e	4cc
4D	4d	4f	4b
4E	4c	4g	4cc
4F	4c	4f	4a
=10	=10	=10	=10
4BB-X	4d	4f	4a
4C	4G	4e	4g
4FF;	4A;	4c;	4f;
4FF#	4A	4d	4a
=11	=11	=11	=11
4GG	8GL	4d	4b-
.	8FnXJ	.	.
4AA	4E	4c#	8aL
.	.	.	8gJ
4BB-	[2B-	4d	4f
8AAL	.	4e	4g
8GGJ	.	.	.
=12	=12	=12	=12
4AA	8B-L]	8c#	4f
.	8AJ	4d	.
4AA	8GL	.	4e
.	8AJ	8c#	.
4D;	4F#;	4A;	4d;
==	==	==	==
*-	*-	*-	*-
!!!YOR1: 371 vierstimmige Choralges&auml;nge von Johann Sebastian Bach, 
!!!YOR2: 4th ed. by Alfred D&ouml;rffel (Leipzig: Breitkopf und H&auml;rtel, 
!!!YOR2: c.1875). 178 pp. Plate "V.A.10".  reprint: J.S. Bach, 371 Four-Part 
!!!YOR4: Chorales (New York: Associated Music Publishers, Inc., c.1940).
!!!SMS: B&H, 4th ed, Alfred D&ouml;rffel, c.1875, plate V.A.10
!!!EED:  Craig Stuart Sapp
!!!EEV:  2009/05/22
